public/library/tycho-icon-dark.svg

<svg width="64" height="64" viewBox="0 0 64 64" fill="none" xmlns="http://www.w3.org/2000/svg">
<circle cx="32" cy="32" r="32" fill="#F9F1DF"/>
<path d="M13.9912 17.0503H50.0085C50.8903 17.0503 51.7359 17.4006 52.3594 18.0241C52.9829 18.6476 53.3332 19.4932 53.3332 20.375C53.3332 36.4442 44.4674 48.9118 31.9998 55.8382C19.5323 48.9118 10.6665 36.4442 10.6665 20.375C10.6665 19.4932 11.0168 18.6476 11.6403 18.0241C12.2638 17.4006 13.1094 17.0503 13.9912 17.0503V17.0503Z" fill="#FF3465" stroke="#FF3465" stroke-width="8.72727" stroke-linejoin="round"/>
<path d="M13.9912 17.0503H50.0085C50.8903 17.0503 51.7359 17.4006 52.3594 18.0241C52.9829 18.6476 53.3332 19.4932 53.3332 20.375C53.3332 36.4442 44.4674 48.9118 31.9998 55.8382C19.5323 48.9118 10.6665 36.4442 10.6665 20.375C10.6665 19.4932 11.0168 18.6476 11.6403 18.0241C12.2638 17.4006 13.1094 17.0503 13.9912 17.0503V17.0503Z" fill="#F9F1DF" stroke="#F9F1DF" stroke-width="4.36364" stroke-linejoin="round"/>
<path d="M13.9912 17.0503H50.0085C50.8903 17.0503 51.7359 17.4006 52.3594 18.0241C52.9829 18.6476 53.3332 19.4932 53.3332 20.375C53.3332 36.4442 44.4674 48.9118 31.9998 55.8382C19.5323 48.9118 10.6665 36.4442 10.6665 20.375C10.6665 19.4932 11.0168 18.6476 11.6403 18.0241C12.2638 17.4006 13.1094 17.0503 13.9912 17.0503V17.0503Z" fill="#311D4B"/>
<path d="M32 35.6133C33.847 31.1804 34.4012 27.1169 33.6623 23.4229" stroke="#F9F1DF" stroke-width="2.02597" stroke-linecap="round"/>
<path d="M31.9997 35.6139C36.4403 33.7854 39.7054 31.3039 41.7951 28.1693" stroke="#F9F1DF" stroke-width="2.02597" stroke-linecap="round"/>
<path d="M32.0004 35.6128C36.4333 37.4598 40.4968 38.0139 44.1909 37.2751" stroke="#F9F1DF" stroke-width="2.02597" stroke-linecap="round"/>
<path d="M31.9997 35.6134C33.8281 40.054 36.3096 43.3192 39.4442 45.4088" stroke="#F9F1DF" stroke-width="2.02597" stroke-linecap="round"/>
<path d="M32 35.6132C30.153 40.0461 29.5988 44.1096 30.3377 47.8037" stroke="#F9F1DF" stroke-width="2.02597" stroke-linecap="round"/>
<path d="M32.0003 35.6134C27.5597 37.4419 24.2946 39.9234 22.2049 43.0579" stroke="#F9F1DF" stroke-width="2.02597" stroke-linecap="round"/>
<path d="M31.9996 35.6128C27.5667 33.7658 23.5032 33.2116 19.8091 33.9505" stroke="#F9F1DF" stroke-width="2.02597" stroke-linecap="round"/>
<path d="M32.0003 35.6139C30.1719 31.1733 27.6904 27.9081 24.5558 25.8184" stroke="#F9F1DF" stroke-width="2.02597" stroke-linecap="round"/>
</svg>

<svg xmlns="http://www.w3.org/2000/svg" width="64" height="64" fill="none" viewBox="0 0 64 64"><circle cx="32" cy="32" r="32" fill="#f9f1df"/><path fill="#ff3465" stroke="#ff3465" stroke-linejoin="round" stroke-width="8.727" d="M13.991 17.05H50.01a3.325 3.325 0 0 1 3.324 3.325c0 16.07-8.866 28.537-21.333 35.463-12.468-6.926-21.333-19.394-21.333-35.463a3.325 3.325 0 0 1 3.324-3.325Z"/><path fill="#f9f1df" stroke="#f9f1df" stroke-linejoin="round" stroke-width="4.364" d="M13.991 17.05H50.01a3.325 3.325 0 0 1 3.324 3.325c0 16.07-8.866 28.537-21.333 35.463-12.468-6.926-21.333-19.394-21.333-35.463a3.325 3.325 0 0 1 3.324-3.325Z"/><path fill="#311d4b" d="M13.991 17.05H50.01a3.325 3.325 0 0 1 3.324 3.325c0 16.07-8.866 28.537-21.333 35.463-12.468-6.926-21.333-19.394-21.333-35.463a3.325 3.325 0 0 1 3.324-3.325"/><path stroke="#f9f1df" stroke-linecap="round" stroke-width="2.026" d="M32 35.613q2.77-6.65 1.662-12.19M32 35.614q6.66-2.743 9.795-7.445"/><path stroke="#f9f1df" stroke-linecap="round" stroke-width="2.026" d="M32 35.613q6.65 2.77 12.19 1.662M32 35.613q2.742 6.661 7.444 9.796M32 35.613q-2.77 6.65-1.662 12.19M32 35.613q-6.66 2.743-9.795 7.445M32 35.613q-6.65-2.77-12.19-1.663"/><path stroke="#f9f1df" stroke-linecap="round" stroke-width="2.026" d="M32 35.614q-2.742-6.66-7.444-9.796"/></svg>
